X:140
T:Lord Louduns march
A:Wyresdale, Lancashire
B:E and J Winder, 1835-41
L:1/8
M:C|
O:England
Z:Richard Robinson 
%%TranscriptionNotes:Some guesswork here owing to imperfect legibility
%%TUNEURL: http://www.leeds.ac.uk/music/Info/RRTuneBk/gettune/00000e9b.html
%%ID:00000e9b
K:D
F2FF F2E2 | DFAd B2A2 | Bd Ad Fd F2 | E2EE E2E2 |\
F2FF F2E2 | DFAd B2A2 | Bd Ad FA dg | fedc d2 ::
agfg aagf | efge f2e2  | d2de f2fg | a2gf f2e2 |\
agfg aagf | ef ge f2e2 | d2de f2g2 | a2gf f2e2 |
f2ff f2df | B>c BA     | BdAd Fd F2 | E2EE E2E2 | \
F2FF F2ED | DFAd B2A2  | Bd Ad FA dg | fedc d4 :|
